X: 332
T:Calabria. JaW.331
M:C|
Q:180
S:James Winder Ms, Lancashire, 1835-41
R:Country Dance
O:England
A:Wyresdale,Lancashire
H:1/8
Z:vmp.Chris Partington, Aug 2004
K:F
cffg f/g/a gf|f/g/a gf egg2|cffg f/g/a gf|gfge f2F2:|!
|:f2ed cAA2|BGAF EGG2|f2ed cAA2|BGFE F2F2:|]
